icon/lg/aurora.svg

<?xml version="1.0" encoding="UTF-8" standalone="no"?>
<svg viewBox="0 0 256 226" version="1.1" xmlns="http://www.w3.org/2000/svg" xmlns:xlink="http://www.w3.org/1999/xlink" preserveAspectRatio="xMidYMid" height="1em" width="1em">
  <g>
    <path d="M155.893921,58.3659843 L100.061732,58.3659843 L128.023181,106.513134 L155.893921,58.3659843" fill="#63C4B1"/>
    <path d="M94.6131654,61.480315 L66.7242835,109.712126 L122.568567,109.712126 L94.6131654,61.480315" fill="#63C4B1"/>
    <path d="M122.567559,115.980094 L66.7222677,115.980094 L94.6111496,164.246173 L122.567559,115.980094" fill="#63C4B1"/>
    <path d="M61.3634016,119.100472 L33.3142677,167.320189 L89.240189,167.320189 L61.3634016,119.100472" fill="#63C4B1"/>
    <path d="M161.259843,61.480315 L133.39515,109.712126 L189.230362,109.712126 L161.259843,61.480315" fill="#63C4B1"/>
    <path d="M189.232378,115.980094 L133.393134,115.980094 L161.26085,164.246173 L189.232378,115.980094" fill="#63C4B1"/>
    <path d="M128.022173,3.79464567 L100.063748,52.0970079 L155.892913,52.0970079 L128.022173,3.79464567" fill="#63C4B1"/>
    <path d="M89.2411969,173.600252 L33.3142677,173.600252 L61.3644094,222.181795 L89.2411969,173.600252" fill="#63C4B1"/>
    <path d="M194.598299,119.100472 L166.648945,167.320189 L222.556724,167.320189 L194.598299,119.100472" fill="#63C4B1"/>
    <path d="M222.55874,173.600252 L166.649953,173.600252 L194.599307,222.181795 L222.55874,173.600252" fill="#63C4B1"/>
    <path d="M128.022173,119.100472 L100.063748,167.320189 L155.892913,167.320189 L128.022173,119.100472" fill="#FFFFFF"/>
    <path d="M89.2411969,58.3659843 L33.3142677,58.3659843 L61.3644094,106.513134 L89.2411969,58.3659843" fill="#FFFFFF"/>
    <path d="M0.065511811,109.711118 L55.8916535,109.711118 L27.9422992,61.4793071 L0.065511811,109.711118" fill="#FFFFFF"/>
    <path d="M27.9422992,164.247181 L55.8916535,115.981102 L0.065511811,115.981102 L27.9422992,164.247181" fill="#FFFFFF"/>
    <path d="M227.918614,61.480315 L200.059969,109.712126 L255.877039,109.712126 L227.918614,61.480315" fill="#FFFFFF"/>
    <path d="M255.879055,115.980094 L200.058961,115.980094 L227.92063,164.246173 L255.879055,115.980094" fill="#FFFFFF"/>
    <path d="M189.232378,0.669228346 L133.393134,0.669228346 L161.26085,48.8466142 L189.232378,0.669228346" fill="#FFFFFF"/>
    <path d="M155.893921,173.600252 L99.9730394,173.600252 L128.023181,222.181795 L155.893921,173.600252" fill="#FFFFFF"/>
    <path d="M161.259843,176.708535 L133.39515,225.36063 L189.230362,225.36063 L161.259843,176.708535" fill="#FFFFFF"/>
    <path d="M122.567559,0.669228346 L66.7222677,0.669228346 L94.6111496,48.8466142 L122.567559,0.669228346" fill="#FFFFFF"/>
    <path d="M61.3634016,3.79464567 L33.3142677,52.0970079 L89.240189,52.0970079 L61.3634016,3.79464567" fill="#FFFFFF"/>
    <path d="M194.598299,3.79464567 L166.648945,52.0970079 L222.556724,52.0970079 L194.598299,3.79464567" fill="#FFFFFF"/>
    <path d="M222.55874,58.3659843 L166.649953,58.3659843 L194.599307,106.513134 L222.55874,58.3659843" fill="#FFFFFF"/>
    <path d="M94.6131654,176.708535 L66.7242835,225.36063 L122.568567,225.36063 L94.6131654,176.708535" fill="#FFFFFF"/>
  </g>
</svg>

<svg width="256" height="226" xmlns="http://www.w3.org/2000/svg" preserveAspectRatio="xMidYMid"><path d="M155.894 58.366h-55.832l27.961 48.147 27.87-48.147M94.613 61.48l-27.889 48.232h55.845L94.613 61.48M122.568 115.98H66.722l27.89 48.266 27.956-48.266M61.363 119.1l-28.049 48.22H89.24L61.363 119.1M161.26 61.48l-27.865 48.232h55.835L161.26 61.48M189.232 115.98h-55.839l27.868 48.266 27.971-48.266M128.022 3.795l-27.958 48.302h55.829l-27.87-48.302M89.241 173.6H33.314l28.05 48.582L89.241 173.6M194.598 119.1l-27.95 48.22h55.909l-27.959-48.22M222.559 173.6H166.65l27.95 48.582 27.959-48.582" fill="#63C4B1"/><path d="m128.022 119.1-27.958 48.22h55.829l-27.87-48.22M89.241 58.366H33.314l28.05 48.147 27.877-48.147M.066 109.711h55.826L27.942 61.48.066 109.711M27.942 164.247l27.95-48.266H.066l27.876 48.266M227.919 61.48l-27.859 48.232h55.817L227.919 61.48M255.88 115.98h-55.821l27.862 48.266 27.958-48.266M189.232.67h-55.839l27.868 48.177L189.232.669M155.894 173.6H99.973l28.05 48.582 27.87-48.582M161.26 176.709l-27.865 48.652h55.835l-27.97-48.652M122.568.67H66.722l27.89 48.177L122.567.669M61.363 3.795 33.314 52.097H89.24L61.363 3.795M194.598 3.795l-27.95 48.302h55.909L194.598 3.795M222.559 58.366H166.65l27.95 48.147 27.959-48.147M94.613 176.709 66.724 225.36h55.845l-27.956-48.652" fill="#FFF"/></svg>
